img/icon-hand-yellow.svg

<svg width="25" height="21" viewBox="0 0 25 21" fill="none" xmlns="http://www.w3.org/2000/svg">
<path d="M0.384277 16.4826V9.43986C0.384277 7.50262 2.19546 5.88265 3.97022 5.41003L11.3066 1.27716C11.7333 0.874434 12.2873 0.653564 12.8752 0.653564C13.488 0.653564 14.0641 0.893582 14.4975 1.32945C14.9307 1.76533 15.1694 2.34481 15.1694 2.96126C15.1694 3.57772 14.9308 4.1572 14.4975 4.59308C14.4761 4.61455 14.4528 4.63408 14.4281 4.65146L13.5455 5.26897H19.503C20.768 5.26897 21.7972 6.30419 21.7972 7.57667C21.7972 8.05067 21.6543 8.4918 21.4098 8.85872H22.0522C23.3172 8.85872 24.3464 9.89394 24.3464 11.1664C24.3464 12.4389 23.3172 13.4741 22.0522 13.4741H21.9196C22.1642 13.841 22.3071 14.2822 22.3071 14.7561C22.3071 16.0286 21.2779 17.0638 20.0128 17.0638H19.3705C19.615 17.4307 19.7579 17.8719 19.7579 18.3459C19.7579 19.6183 18.7287 20.6536 17.4637 20.6536H5.04074C2.84271 20.6536 0.384277 18.8698 0.384277 16.4826ZM14.1498 2.96126C14.1498 2.61881 14.0172 2.29683 13.7765 2.05471C13.5358 1.81253 13.2157 1.67921 12.8753 1.67921C12.5348 1.67921 12.2148 1.81253 11.974 2.05471C11.9409 2.08797 11.9035 2.11653 11.8627 2.13949L4.4106 6.33751C4.37087 6.35981 4.32851 6.37674 4.28438 6.38776C2.89916 6.73386 1.40406 7.9992 1.40406 9.43986V16.4826C1.40406 18.254 3.35901 19.6279 5.04084 19.6279H17.4637C18.1665 19.6279 18.7382 19.0527 18.7382 18.3459C18.7382 17.639 18.1665 17.0638 17.4637 17.0638C17.1821 17.0638 16.9538 16.8342 16.9538 16.551C16.9538 16.2677 17.1821 16.0381 17.4637 16.0381H20.0128C20.7156 16.0381 21.2874 15.463 21.2874 14.7561C21.2874 14.0492 20.7156 13.474 20.0128 13.474C19.7312 13.474 19.503 13.2444 19.503 12.9612C19.503 12.678 19.7312 12.4484 20.0128 12.4484H22.0522C22.7549 12.4484 23.3268 11.8732 23.3268 11.1663C23.3268 10.4594 22.7549 9.88426 22.0522 9.88426H19.503C19.2214 9.88426 18.9931 9.65464 18.9931 9.3714C18.9931 9.08816 19.2214 8.85855 19.503 8.85855C20.2058 8.85855 20.7775 8.28344 20.7775 7.5765C20.7775 6.86956 20.2058 6.29445 19.503 6.29445H11.9197C11.6969 6.29445 11.4999 6.14896 11.4332 5.93506C11.3666 5.72127 11.4456 5.48862 11.6286 5.36061L13.8054 3.83755C14.0278 3.5993 14.1498 3.28972 14.1498 2.96126Z" fill="#FEF288"/>
<path d="M13.1304 16.5509C13.1304 16.2678 13.3586 16.0381 13.6402 16.0381H17.464C17.7456 16.0381 17.9738 16.2677 17.9738 16.5509C17.9738 16.8342 17.7456 17.0638 17.464 17.0638H13.6402C13.3586 17.0638 13.1304 16.8342 13.1304 16.5509Z" fill="#FEF288"/>
<path d="M13.1299 12.9611C13.1299 12.6779 13.3582 12.4482 13.6398 12.4482H20.0127C20.2943 12.4482 20.5226 12.6778 20.5226 12.9611C20.5226 13.2443 20.2943 13.4739 20.0127 13.4739H13.6398C13.3582 13.4739 13.1299 13.2443 13.1299 12.9611Z" fill="#FEF288"/>
<path d="M13.1299 9.37149C13.1299 9.08826 13.3582 8.85864 13.6398 8.85864H19.5029C19.7844 8.85864 20.0127 9.08826 20.0127 9.3715C20.0127 9.65473 19.7845 9.88435 19.5029 9.88435H13.6398C13.3582 9.88435 13.1299 9.65473 13.1299 9.37149Z" fill="#FEF288"/>
<path d="M4.46289 13.9868C4.46289 13.7639 4.60847 13.5588 4.83201 13.4941C7.24654 12.796 8.77724 11.3187 9.38152 9.10318C9.84341 7.4095 9.57293 5.89125 9.57002 5.87614C9.54267 5.72639 9.58245 5.57154 9.67929 5.45438C9.77612 5.33722 9.91972 5.26904 10.0712 5.26904H15.9343C16.2159 5.26904 16.4442 5.49866 16.4442 5.7819C16.4442 6.06514 16.2159 6.29469 15.9343 6.29469H10.6454C10.6971 6.95924 10.7073 8.09424 10.3757 9.33495C9.89672 11.1265 8.59507 13.4734 5.11377 14.4799C4.84318 14.5582 4.56071 14.4009 4.48286 14.1287C4.46933 14.0813 4.46289 14.0336 4.46289 13.9868Z" fill="#FEF288"/>
<path d="M13.1299 18.0895V7.83311C13.1299 7.54987 13.3582 7.32031 13.6398 7.32031C13.9214 7.32031 14.1497 7.54987 14.1497 7.83311V18.0896C14.1497 18.3727 13.9214 18.6024 13.6398 18.6024C13.3582 18.6024 13.1299 18.3727 13.1299 18.0895Z" fill="#FEF288"/>
</svg>

<svg xmlns="http://www.w3.org/2000/svg" width="25" height="21" fill="#fef288" xmlns:v="https://vecta.io/nano"><path d="M.384 16.483V9.44c0-1.937 1.811-3.557 3.586-4.03l7.336-4.133a2.27 2.27 0 0 1 1.569-.624c.613 0 1.189.24 1.622.676a2.3 2.3 0 0 1 .672 1.632 2.3 2.3 0 0 1-.672 1.632c-.021.021-.045.041-.069.058l-.883.618h5.958c1.265 0 2.294 1.035 2.294 2.308 0 .474-.143.915-.387 1.282h.642c1.265 0 2.294 1.035 2.294 2.308s-1.029 2.308-2.294 2.308h-.133c.245.367.387.808.387 1.282 0 1.273-1.029 2.308-2.294 2.308h-.642c.244.367.387.808.387 1.282 0 1.272-1.029 2.308-2.294 2.308H5.041c-2.198 0-4.656-1.784-4.656-4.171zM14.15 2.961c0-.342-.133-.664-.373-.907a1.26 1.26 0 0 0-.901-.375 1.26 1.26 0 0 0-.901.375.51.51 0 0 1-.111.085L4.411 6.338a.51.51 0 0 1-.126.05c-1.385.346-2.88 1.611-2.88 3.052v7.043c0 1.771 1.955 3.145 3.637 3.145h12.423a1.28 1.28 0 1 0 0-2.564.51.51 0 1 1 0-1.026h2.549a1.28 1.28 0 1 0 0-2.564.51.51 0 1 1 0-1.026h2.039a1.28 1.28 0 1 0 0-2.564h-2.549a.51.51 0 0 1 0-1.026 1.28 1.28 0 0 0 0-2.564H11.92a.51.51 0 0 1-.487-.359c-.067-.214.012-.446.195-.574l2.177-1.523c.222-.238.344-.548.344-.876z"/><path d="M13.13 16.551a.51.51 0 0 1 .51-.513h3.824a.513.513 0 1 1 0 1.026H13.64a.51.51 0 0 1-.51-.513zm0-3.59a.51.51 0 0 1 .51-.513h6.373a.513.513 0 1 1 0 1.026H13.64a.51.51 0 0 1-.51-.513zm0-3.59a.51.51 0 0 1 .51-.513h5.863a.513.513 0 1 1 0 1.026H13.64a.51.51 0 0 1-.51-.513zm-8.667 4.616c0-.223.146-.428.369-.493 2.415-.698 3.945-2.175 4.55-4.391.462-1.694.191-3.212.188-3.227-.027-.15.012-.305.109-.422a.51.51 0 0 1 .392-.185h5.863a.513.513 0 0 1 0 1.026h-5.289a9.24 9.24 0 0 1-.27 3.04c-.479 1.792-1.781 4.138-5.262 5.145a.51.51 0 0 1-.631-.351c-.014-.047-.02-.095-.02-.142z"/><path d="M13.13 18.09V7.833a.51.51 0 0 1 .51-.513.51.51 0 0 1 .51.513V18.09a.51.51 0 0 1-.51.513.51.51 0 0 1-.51-.513z"/></svg>
